X:1
T:Francis Mooney's Mazurka #1
T:Phroinsias Ui Mhaonaigh's Mazurka #1
R:mazurka
D:Mairead Ni Mhaonaigh & Frankie Kennedy: Ceol Aduaidh
D:Fiddle Sticks, Irish Traditional Music from Donegal
L:1/8
M:3/4
K:D
DF|AF A2 dc|BG B2 ed|cB c2 BA|F4 DF|AF A2 dc|BG B2 ed|cB c2 BA|d4:|
fg|af d2 A2|c2 B2 ef|ge c2 A2|Bc A2 fg|af d2 A2|c2 B2 ef|ge cA Bc|d4:|
